X: 1
T: The Clare
R: reel
M: 4/4
L: 1/8
K: Gmaj
GEDE A2 GE | GEDE c2 BA | GEDE A2 GA | BcAB G4 :|
Bdeg deBA | Bdeg d4 | Bdeg deBA | GEDE G4 :|


Tune 8494	Setting 29486

